src/assets/icons/months,fancy,august-8.svg

<svg width="48" height="48" viewBox="0 0 48 48" fill="none" xmlns="http://www.w3.org/2000/svg">
<rect opacity="0.2" x="4" y="6" width="40" height="40" rx="4" fill="black"/>
<path d="M9.1108 36L9.97443 33.3466H14.1733L15.0369 36H17.6733L13.6619 24.3636H10.4915L6.47443 36H9.1108ZM10.5994 31.4261L12.0312 27.0227H12.1222L13.554 31.4261H10.5994ZM26.2614 24.3636V31.7102C26.2614 33.0398 25.3295 34 23.8977 34C22.4716 34 21.5341 33.0398 21.5341 31.7102V24.3636H19.0739V31.9205C19.0739 34.4659 20.9943 36.1648 23.8977 36.1648C26.7898 36.1648 28.7216 34.4659 28.7216 31.9205V24.3636H26.2614ZM38.4616 28.125H40.9616C40.6435 25.8239 38.6151 24.2045 35.9844 24.2045C32.9105 24.2045 30.5412 26.4205 30.5412 30.1932C30.5412 33.875 32.7571 36.1591 36.0355 36.1591C38.973 36.1591 41.0696 34.3011 41.0696 31.2386V29.7727H36.2003V31.625H38.7003C38.6662 33.0682 37.6832 33.983 36.0469 33.983C34.2003 33.983 33.0355 32.6023 33.0355 30.1705C33.0355 27.75 34.2457 26.3807 36.0241 26.3807C37.2912 26.3807 38.1491 27.0341 38.4616 28.125Z" fill="black"/>
<g opacity="0.4">
<path d="M10 4C10 2.89543 10.8954 2 12 2C13.1046 2 14 2.89543 14 4V8C14 9.10457 13.1046 10 12 10C10.8954 10 10 9.10457 10 8V4Z" fill="black"/>
<path d="M34 4C34 2.89543 34.8954 2 36 2C37.1046 2 38 2.89543 38 4V8C38 9.10457 37.1046 10 36 10C34.8954 10 34 9.10457 34 8V4Z" fill="black"/>
</g>
<path fill-rule="evenodd" clip-rule="evenodd" d="M10 6.00869C7.52043 6.04456 6.11466 6.22849 5.17157 7.17157C4 8.34315 4 10.2288 4 14V16H44V14C44 10.2288 44 8.34315 42.8284 7.17157C41.8853 6.22849 40.4796 6.04456 38 6.00869V8C38 9.10457 37.1046 10 36 10C34.8954 10 34 9.10457 34 8V6H14V8C14 9.10457 13.1046 10 12 10C10.8954 10 10 9.10457 10 8V6.00869Z" fill="black"/>
</svg>

<svg xmlns="http://www.w3.org/2000/svg" width="48" height="48" fill="none" viewBox="0 0 48 48">
  <rect width="40" height="40" x="4" y="6" fill="#000" opacity=".2" rx="4"/>
  <path fill="#000" d="M9.11 36l.864-2.653h4.2L15.036 36h2.636l-4.011-11.636h-3.17L6.474 36h2.637zm1.49-4.574l1.431-4.403h.091l1.432 4.403h-2.955zm15.661-7.062v7.346c0 1.33-.931 2.29-2.363 2.29-1.426 0-2.364-.96-2.364-2.29v-7.346h-2.46v7.556c0 2.546 1.92 4.245 4.824 4.245 2.892 0 4.824-1.7 4.824-4.244v-7.557h-2.46zm12.2 3.761h2.5c-.317-2.301-2.346-3.92-4.977-3.92-3.074 0-5.443 2.216-5.443 5.988 0 3.682 2.216 5.966 5.494 5.966 2.938 0 5.035-1.858 5.035-4.92v-1.466H36.2v1.852h2.5c-.034 1.443-1.017 2.358-2.653 2.358-1.847 0-3.011-1.38-3.011-3.812 0-2.421 1.21-3.79 2.988-3.79 1.267 0 2.125.653 2.438 1.744z"/>
  <g opacity=".4">
    <path fill="#000" d="M10 4a2 2 0 114 0v4a2 2 0 11-4 0V4zM34 4a2 2 0 114 0v4a2 2 0 11-4 0V4z"/>
  </g>
  <path fill="#000" fill-rule="evenodd" d="M10 6.009c-2.48.036-3.885.22-4.828 1.163C4 8.343 4 10.229 4 14v2h40v-2c0-3.771 0-5.657-1.172-6.828-.943-.944-2.348-1.127-4.828-1.163V8a2 2 0 11-4 0V6H14v2a2 2 0 11-4 0V6.009z" clip-rule="evenodd"/>
</svg>
